svg/u1f40f.svg

<svg viewBox="0 0 128 128" xmlns="http://www.w3.org/2000/svg">
  <path d="M108.34,48.93c1.29-0.36,4.43,4.75,7.11,6.9c2.46,1.97,4.03,3.15,5.35,3.38 c0.82,0.14,3.8,0.92,2.25,3.87s-5.7,3.03-7.74,2.96c-2.04-0.07-11.61-9.92-11.61-9.92S103.83,50.2,108.34,48.93z" fill="#929394"/>
  <path d="M37.88,16.62c0,0-4.24-2.44-12.46-1.27c-6.29,0.9-13.37,4.36-17.67,12.6 c-4.93,9.43-4.6,18.61-1.06,25.06c4.19,7.63,11.76,12.18,11.76,12.18L37.88,16.62z" fill="#B88658"/>
  <path d="M21.13,30.35c0,0-2.67,0-5,3.1c-1.87,2.49-2.67,4.5-2.67,4.5s-5.82,0.94-5.98,4.36 c-0.1,2.11,2.46,1.41,4.43,3.38s2.46,3.31,2.96,5.56c0.49,2.25,3.31,2.67,3.31,2.67s0.07-5.7-3.03-8.8s-5.28-2.32-5.14-3.1 c0.14-0.77,2.46-2.37,5-2.32c3.94,0.07,5.56,4.65,5.56,4.65l2.6-11.54L21.13,30.35z" fill="#6F4B41"/>
  <path d="M76.24,108.15c0,0-0.05,2.53,0.14,3.64c0.09,0.54,2.07,2.13,5.96,2.23c3.85,0.09,6.08-1.99,6.05-3.1 c-0.02-0.94,0.28-4.97,0.28-4.97l-1.17-4.08l-9.36,2.67l-0.73,1.4L76.24,108.15z" fill="#5D6167"/>
  <path d="M79.83,108.34c0,0,1.57,0.39,4.48,0.09c2.82-0.28,4.32-1.5,4.32-1.5l1.06-7.11l-13.37,1.41l1.83,6.83 L79.83,108.34z" fill="#979899"/>
  <path d="M95.06,107.49c0,0,0.2,5.34,0.52,5.96c0.33,0.66,1.87,2.2,5.68,2.35c4.79,0.19,5.96-1.6,6.1-2.82 s0.84-5.23,0.28-6.71c-0.56-1.48-10.09-0.52-10.09-0.52L95.06,107.49z" fill="#5D6268"/>
  <path d="M108.74,91.91l-13.7,1.64c0,0-0.28,13.09,0,13.94c0.28,0.84,2.18,2.07,6.48,2.18 c4.58,0.12,6.26-1.2,6.26-1.2l1.45-16.28L108.74,91.91z" fill="#979899"/>
  <path d="M51.63,115c0,0,0.19,5.63,0.75,6.34c0.56,0.7,1.71,2.91,6.43,2.77s6.31-2.89,6.45-3.59 c0.14-0.7,0.16-4.67,0.16-4.67l-13.12-2.65L51.63,115z" fill="#5D6164"/>
  <path d="M65.61,106.3l-14.5,1.2c0,0,0.31,6.85,0.52,8.12c0.18,1.1,2.09,2.72,7.09,2.58 c5-0.14,6.76-2.39,6.76-2.39L65.61,106.3z" fill="#979899"/>
  <path d="M30.44,112.66c0,0,2.72-2.84,6.59-2.98s6.45,4.76,6.45,4.76s0.12,2.65,0.12,3.47 c0,1.27-2.95,3.28-6.26,3.24c-5.09-0.07-5.77-2.06-6.01-3.05C31.19,117.51,30.44,112.66,30.44,112.66z" fill="#5F6467"/>
  <path d="M31.61,102.07l-2.89,0.96l1.76,9.95c0,0,2.11,2.96,6.83,2.96s6.19-1.41,6.19-1.41l-0.42-8.38 L31.61,102.07z" fill="#98999A"/>
  <path d="M59.49,20.21c0,0-2.4-7.11-12.25-7.46c-11.68-0.42-14.08,8.87-14.08,8.87s-5.77-3.1-11.12,2.53 s-1.13,11.68-1.13,11.68s-3.14,2.26-2.67,6.34c0.42,3.66,2.53,4.79,2.53,4.79s-7.85,4.12-8.87,13.51 c-1.13,10.42,3.52,14.08,3.52,14.08s-4.08,6.62,0.42,15.91c4.3,8.87,10.42,9.29,10.42,9.29s3.24,7.32,9.15,8.73 s10.84-0.28,10.84-0.28s5.35,4.79,11.12,4.08c5.77-0.7,7.6-3.52,7.6-3.52s3.52,3.38,10.56,1.83s8.31-5.49,8.31-5.49 s6.48,3.66,13.09,0.14c6.62-3.52,7.18-9.71,7.18-9.71s7.18-1.13,10.98-8.45c3.8-7.32,0.28-12.11,0.28-12.11s1.83-3.8-0.14-11.54 c-1.97-7.74-7.88-8.59-7.88-8.59s4.36-7.88-1.55-13.8c-5.91-5.91-14.64-4.79-14.64-4.79l-22.52-7.88c0,0,2.88-4.09-1.97-7.32 C62.87,18.52,59.49,20.21,59.49,20.21z" fill="#DEDEDE"/>
  <path d="M21.71,47.33c0,0,2.35,0.28,4.97-1.78c2.63-2.06,4.04-4.79,4.04-4.79s2.4,5.03,7.88,6.01 c6.85,1.22,11.64-5.16,11.64-5.16s-0.75,3.66,3.1,6.66s8.45,1.78,8.45,1.78s-5.63,5.82-7.41,10.7s-2.72,13.14-7.32,17.18 c-6.5,5.7-26.09,4.88-27.5-8.63c-0.6-5.74,2.44-5.82,2.82-13.51C22.64,50.24,21.71,47.33,21.71,47.33z" fill="#979899"/>
  <path d="M31.71,66.11c0.29,0.04,2.25-1.03,2.63-1.22c0.38-0.19,2.11-1.31,2.86-0.23 c0.75,1.08,0.22,2.09-1.4,2.86c-1.18,0.56-2.5,1.2-2.5,1.2s-0.66,4.12,2.15,4.4c1.76,0.18,2.15-1,3.41,0.18 c1.27,1.17-0.42,3.13-3.12,3c-1.52-0.07-2.44-0.43-3.28-1.22c-0.42-0.39-1.02-1.71-1.02-1.71s-0.67,2.13-3.48,2.32 c-2.6,0.18-3.99-2.11-2.91-3.14c1.08-1.03,1.13,0.31,2.77,0.26c2.36-0.07,2.04-4.33,2.04-4.33s-1.62-1.84-2.09-2.31 c-0.47-0.47-1.25-1.41-0.66-2.25c0.77-1.1,1.71-0.41,2.18-0.08C29.76,64.15,31.41,66.07,31.71,66.11z" fill="#2F2F2F"/>
  <path d="M64.04,48.65l-1.22-13.14l21.4-4.22l6.01,12.11L86.38,61.6l-1.22,5.44l-6.1,6.85 c0,0-4.33,2.51-10.04,0.84c-6.1-1.78-8.73-5.54-10.04-11.73C57,53.7,64.04,48.65,64.04,48.65z" fill="#6F4B41"/>
  <path d="M60.1,38.14c0,6.01,2.91,10.89,3.94,10.51c1.03-0.38,4.84-1.41,6.01-6.29 c0.56-2.32,3.42-4.69,6.56-5.05c3.2-0.37,6.7,1.34,8.36,7.31c1.5,5.4-0.18,10.52-3.1,12.67c-2.92,2.15-6.89,1.68-7.88-1.22 c-1.5-4.41,4.69-5.91,4.79-7.41s-7.6-4.79-12.86,0.38c-5.87,5.76-6.38,14.27-1.78,20.18s11.98,6.86,19.33,3 c7.51-3.94,13.81-11.93,13.33-27.31c-0.56-18.02-14.64-27.38-25.43-24.96c-3.99,0.89-6.69,2.84-8.39,5.71 C61.27,28.52,60.1,33.54,60.1,38.14z" fill="#B68859"/>
  <ellipse cx="47.43" cy="51.49" fill="#2F2F2F" rx="3.28" ry="3.96"/>
  <ellipse cx="28.28" cy="49.47" fill="#2F2F2F" rx="3.01" ry="3.57"/>
</svg>

<svg viewBox="0 0 128 128" xmlns="http://www.w3.org/2000/svg">
  <defs/>
  <path d="M108.34,48.93 C109.63,48.57 112.77,53.68 115.45,55.83 C117.91,57.8 119.48,58.98 120.8,59.21 C121.62,59.35 124.6,60.13 123.05,63.08 C121.5,66.03 117.35,66.11 115.31,66.04 C113.27,65.97 103.7,56.12 103.7,56.12 C103.7,56.12 103.83,50.2 108.34,48.93 Z" fill="#929394"/>
  <path d="M37.88,16.62 C37.88,16.62 33.64,14.18 25.42,15.35 C19.13,16.25 12.05,19.71 7.75,27.95 C2.82,37.38 3.15,46.56 6.69,53.01 C10.88,60.64 18.45,65.19 18.45,65.19 L37.88,16.62 Z" fill="#B88658"/>
  <path d="M21.13,30.35 C21.13,30.35 18.46,30.35 16.13,33.45 C14.26,35.94 13.46,37.95 13.46,37.95 C13.46,37.95 7.64,38.89 7.48,42.31 C7.38,44.42 9.94,43.72 11.91,45.69 C13.88,47.66 14.37,49 14.87,51.25 C15.36,53.5 18.18,53.92 18.18,53.92 C18.18,53.92 18.25,48.22 15.15,45.12 C12.05,42.02 9.87,42.8 10.01,42.02 C10.15,41.25 12.47,39.65 15.01,39.7 C18.95,39.77 20.57,44.35 20.57,44.35 L23.17,32.81 L21.13,30.35 Z" fill="#6F4B41"/>
  <path d="M76.24,108.15 C76.24,108.15 76.19,110.68 76.38,111.79 C76.47,112.33 78.45,113.92 82.34,114.02 C86.19,114.11 88.42,112.03 88.39,110.92 C88.37,109.98 88.67,105.95 88.67,105.95 L87.5,101.87 L78.14,104.54 L77.41,105.94 L76.24,108.15 Z" fill="#5D6167"/>
  <path d="M79.83,108.34 C79.83,108.34 81.4,108.73 84.31,108.43 C87.13,108.15 88.63,106.93 88.63,106.93 L89.69,99.82 L76.32,101.23 L78.15,108.06 L79.83,108.34 Z" fill="#979899"/>
  <path d="M95.06,107.49 C95.06,107.49 95.26,112.83 95.58,113.45 C95.91,114.11 97.45,115.65 101.26,115.8 C106.05,115.99 107.22,114.2 107.36,112.98 C107.5,111.76 108.2,107.75 107.64,106.27 C107.08,104.79 97.55,105.75 97.55,105.75 L95.06,107.49 Z" fill="#5D6268"/>
  <path d="M108.74,91.91 L95.04,93.55 C95.04,93.55 94.76,106.64 95.04,107.49 C95.32,108.33 97.22,109.56 101.52,109.67 C106.1,109.79 107.78,108.47 107.78,108.47 L109.23,92.19 L108.74,91.91 Z" fill="#979899"/>
  <path d="M51.63,115 C51.63,115 51.82,120.63 52.38,121.34 C52.94,122.04 54.09,124.25 58.81,124.11 C63.53,123.97 65.12,121.22 65.26,120.52 C65.4,119.82 65.42,115.85 65.42,115.85 L52.3,113.2 L51.63,115 Z" fill="#5D6164"/>
  <path d="M65.61,106.3 L51.11,107.5 C51.11,107.5 51.42,114.35 51.63,115.62 C51.81,116.72 53.72,118.34 58.72,118.2 C63.72,118.06 65.48,115.81 65.48,115.81 L65.61,106.3 Z" fill="#979899"/>
  <path d="M30.44,112.66 C30.44,112.66 33.16,109.82 37.03,109.68 C40.9,109.54 43.48,114.44 43.48,114.44 C43.48,114.44 43.6,117.09 43.6,117.91 C43.6,119.18 40.65,121.19 37.34,121.15 C32.25,121.08 31.57,119.09 31.33,118.1 C31.19,117.51 30.44,112.66 30.44,112.66 Z" fill="#5F6467"/>
  <path d="M31.61,102.07 L28.72,103.03 L30.48,112.98 C30.48,112.98 32.59,115.94 37.31,115.94 C42.03,115.94 43.5,114.53 43.5,114.53 L43.08,106.15 L31.61,102.07 Z" fill="#98999A"/>
  <path d="M59.49,20.21 C59.49,20.21 57.09,13.1 47.24,12.75 C35.56,12.33 33.16,21.62 33.16,21.62 C33.16,21.62 27.39,18.52 22.04,24.15 C16.69,29.78 20.91,35.83 20.91,35.83 C20.91,35.83 17.77,38.09 18.24,42.17 C18.66,45.83 20.77,46.96 20.77,46.96 C20.77,46.96 12.92,51.08 11.9,60.47 C10.77,70.89 15.42,74.55 15.42,74.55 C15.42,74.55 11.34,81.17 15.84,90.46 C20.14,99.33 26.26,99.75 26.26,99.75 C26.26,99.75 29.5,107.07 35.41,108.48 C41.32,109.89 46.25,108.2 46.25,108.2 C46.25,108.2 51.6,112.99 57.37,112.28 C63.14,111.58 64.97,108.76 64.97,108.76 C64.97,108.76 68.49,112.14 75.53,110.59 C82.57,109.04 83.84,105.1 83.84,105.1 C83.84,105.1 90.32,108.76 96.93,105.24 C103.55,101.72 104.11,95.53 104.11,95.53 C104.11,95.53 111.29,94.4 115.09,87.08 C118.89,79.76 115.37,74.97 115.37,74.97 C115.37,74.97 117.2,71.17 115.23,63.43 C113.26,55.69 107.35,54.84 107.35,54.84 C107.35,54.84 111.71,46.96 105.8,41.04 C99.89,35.13 91.16,36.25 91.16,36.25 L68.64,28.37 C68.64,28.37 71.52,24.28 66.67,21.05 C62.87,18.52 59.49,20.21 59.49,20.21 Z" fill="#DEDEDE"/>
  <path d="M21.71,47.33 C21.71,47.33 24.06,47.61 26.68,45.55 C29.31,43.49 30.72,40.76 30.72,40.76 C30.72,40.76 33.12,45.79 38.6,46.77 C45.45,47.99 50.24,41.61 50.24,41.61 C50.24,41.61 49.49,45.27 53.34,48.27 C57.19,51.27 61.79,50.05 61.79,50.05 C61.79,50.05 56.16,55.87 54.38,60.75 C52.6,65.63 51.66,73.89 47.06,77.93 C40.56,83.63 20.97,82.81 19.56,69.3 C18.96,63.56 22,63.48 22.38,55.79 C22.64,50.24 21.71,47.33 21.71,47.33 Z" fill="#979899"/>
  <path d="M31.71,66.11 C32,66.15 33.96,65.08 34.34,64.89 C34.72,64.7 36.45,63.58 37.2,64.66 C37.95,65.74 37.42,66.75 35.8,67.52 C34.62,68.08 33.3,68.72 33.3,68.72 C33.3,68.72 32.64,72.84 35.45,73.12 C37.21,73.3 37.6,72.12 38.86,73.3 C40.13,74.47 38.44,76.43 35.74,76.3 C34.22,76.23 33.3,75.87 32.46,75.08 C32.04,74.69 31.44,73.37 31.44,73.37 C31.44,73.37 30.77,75.5 27.96,75.69 C25.36,75.87 23.97,73.58 25.05,72.55 C26.13,71.52 26.18,72.86 27.82,72.81 C30.18,72.74 29.86,68.48 29.86,68.48 C29.86,68.48 28.24,66.64 27.77,66.17 C27.3,65.7 26.52,64.76 27.11,63.92 C27.88,62.82 28.82,63.51 29.29,63.84 C29.76,64.15 31.41,66.07 31.71,66.11 Z" fill="#2F2F2F"/>
  <path d="M64.04,48.65 L62.82,35.51 L84.22,31.29 L90.23,43.4 L86.38,61.6 L85.16,67.04 L79.06,73.89 C79.06,73.89 74.73,76.4 69.02,74.73 C62.92,72.95 60.29,69.19 58.98,63 C57,53.7 64.04,48.65 64.04,48.65 Z" fill="#6F4B41"/>
  <path d="M60.1,38.14 C60.1,44.15 63.01,49.03 64.04,48.65 C65.07,48.27 68.88,47.24 70.05,42.36 C70.61,40.04 73.47,37.67 76.61,37.31 C79.81,36.94 83.31,38.65 84.97,44.62 C86.47,50.02 84.79,55.14 81.87,57.29 C78.95,59.44 74.98,58.97 73.99,56.07 C72.49,51.66 78.68,50.16 78.78,48.66 C78.88,47.16 71.18,43.87 65.92,49.04 C60.05,54.8 59.54,63.31 64.14,69.22 C68.74,75.13 76.12,76.08 83.47,72.22 C90.98,68.28 97.28,60.29 96.8,44.91 C96.24,26.89 82.16,17.53 71.37,19.95 C67.38,20.84 64.68,22.79 62.98,25.66 C61.27,28.52 60.1,33.54 60.1,38.14 Z" fill="#B68859"/>
  <path d="M50.71,51.49 A3.28 3.96 0 1 1 44.15,51.49 A3.28 3.96 0 1 1 50.71,51.49 Z" fill="#2F2F2F"/>
  <path d="M31.29,49.47 A3.01 3.57 0 1 1 25.27,49.47 A3.01 3.57 0 1 1 31.29,49.47 Z" fill="#2F2F2F"/>
</svg>
